X: 30272
T: Old Lord Gordon's
R: reel
M: 4/4
K: Dmajor
dB|A2 (3FED ADFD|ADFD A2FA|B2GB EBGB|defd BAFA|
dcdf efdB|AF~F2 ABdf|afef dBAF|EFGA B2:|
|:ag|fada fadf|afdf a2gf|gbed gaba|~g3a bafa|
afea fedB|AF~F2 ABdf|afef dBAF|EFGA B2:|

